material/.icons/material/floor-lamp-variant.svg

<svg xmlns="http://www.w3.org/2000/svg" viewBox="0 0 24 24"><path d="M7 2l3 7h4l3-7H7m8.92 20L13 15v7h-2v-7l-2.92 7H5.92l5-12h2.16l5 12h-2.16z"/></svg>

<?xml version="1.0" encoding="UTF-8"?><!DOCTYPE svg PUBLIC "-//W3C//DTD SVG 1.1//EN" "http://www.w3.org/Graphics/SVG/1.1/DTD/svg11.dtd"><svg xmlns="http://www.w3.org/2000/svg" xmlns:xlink="http://www.w3.org/1999/xlink" version="1.1" id="mdi-floor-lamp-variant" width="24" height="24" viewBox="0 0 24 24"><path d="M7 2L10 9H14L17 2H7M15.92 22L13 15V22H11V15L8.08 22H5.92L10.92 10H13.08L18.08 22H15.92Z" /></svg>
